usr/share/icons/biglinux-icons-material-dark/22/actions/kr_mountman.svg

<svg xmlns="http://www.w3.org/2000/svg" viewBox="0 0 22 22">
<defs id="defs3051">
<style id="current-color-scheme" type="text/css">
.ColorScheme-Text{color:#dedede}
</style>
</defs>
<path d="M3 3v16h16V3zm1 1h14v12h-7v1H8v-1l-1 1v1H4v-1h1l-1-1zm2 2v8h2l1-1H7V7h2v4h4V7h2v6H9l1 1h6V6zm6 11h6v1h-6z" class="ColorScheme-Text" style="fill:currentColor;fill-opacity:1;stroke:none"/>
<path d="M7 11c-2.216 0-4 1.784-4 4s1.784 4 4 4 4-1.784 4-4-1.784-4-4-4m2 2 1 1-4 4-1-1-1-1 1-1 1 1z" style="fill:#2ecc71;fill-opacity:1;stroke:none"/>
</svg>

<svg xmlns="http://www.w3.org/2000/svg" viewBox="0 0 22 22">
  <defs id="defs3051">
    <style type="text/css" id="current-color-scheme">
      .ColorScheme-Text {
        color:#dedede;
      }
      </style>
  </defs>
 <path 
     style="fill:currentColor;fill-opacity:1;stroke:none" 
     d="M 3 3 L 3 19 L 19 19 L 19 3 L 3 3 z M 4 4 L 18 4 L 18 16 L 11 16 L 11 17 L 8 17 L 8 16 L 7 17 L 7 18 L 6 18 L 4 18 L 4 17 L 5 17 L 4 16 L 4 4 z M 6 6 L 6 14 L 8 14 L 9 13 L 7 13 L 7 12 L 7 7 L 8 7 L 9 7 L 9 11 L 13 11 L 13 7 L 14 7 L 15 7 L 15 12 L 15 13 L 9 13 L 10 14 L 16 14 L 16 6 L 6 6 z M 12 17 L 18 17 L 18 18 L 12 18 L 12 17 z "
     class="ColorScheme-Text"
     />
    <path
     style="fill:#2ecc71;fill-opacity:1;stroke:none"
     d="M 7 11 C 4.784 11 3 12.784 3 15 C 3 17.216 4.784 19 7 19 C 9.216 19 11 17.216 11 15 C 11 12.784 9.216 11 7 11 z M 9 13 L 10 14 L 6 18 L 5 17 L 4 16 L 5 15 L 6 16 L 9 13 z "
     />
</svg>
